X:1
T:Title
%%score { ( 1 4 ) | ( 2 3 ) }
L:1/8
Q:1/4=80
M:2/4
K:F
V:1 treble nm="Grand Piano"
V:4 treble 
V:2 bass 
V:3 bass 
V:1
 [A,C][CA] [DA][B,G] | [B,G]F [F,A,F][CE] | [B,D]E [DF]G | [CA]4 | [Ac]B [EG]B | [DB][CA] [A,F]A | %6
w: Ira~B.~Wilson * * *||||||
 .[G,EG]2 .[F=B]2 | [Ec]4 | cA EF | AG DG | FE DC | c4 | cA EF | AG DG | FE [CA][CG] | %15
w: |||||||||
[M:5/8] [A,F]-[A,F]- [A,F]3 |] %16
w: |
V:2
 [F,,F,]2 [C,,C,]2 | z A, F,,A,, | z C z ^C | [F,,F,]C, A,,F,, | z G z D | [F,,F,]2 z C | %6
 z A z[K:treble] d | C,B,, A,,G,, | F,,F, [A,C]F, | B,,G, B,G, | C,,C, [G,B,]E, | z F z E | %12
 F,,F, [A,C]F, | B,,G, B,G, | C,,C, E,C, |[M:5/8] F,C, F,,3 |] %16
V:3
 x4 | [F,,F,]2 z2 | B,,2 B,,2 | x4 | C,2 C,2 | z2 [F,,F,]2 | G,,2 [G,,G,]2[K:treble] | x4 | x4 | %9
 x4 | x4 | A,,2 G,,2 | x4 | x4 | x4 |[M:5/8] x5 |] %16
V:4
 x4 | x4 | x4 | x4 | x4 | x4 | x4 | x4 | x4 | x4 | x4 | z2 z B | x4 | x4 | x4 |[M:5/8] x5 |] %16

